; generated by PrusaSlicer 2.3.0+win64 on 2021-03-07 at 19:18:47 UTC

; 

; external perimeters extrusion width = 0.45mm
; perimeters extrusion width = 0.45mm
; infill extrusion width = 0.45mm
; solid infill extrusion width = 0.45mm
; top infill extrusion width = 0.40mm
; first layer extrusion width = 0.70mm

M107
M104 S200 ; set temperature
;TYPE:Custom
G28 ; home all axes
G1 Z5 F5000 ; lift nozzle
M109 S200 ; set temperature and wait for it to be reached
G21 ; set units to millimeters
G90 ; use absolute coordinates
M82 ; use absolute distances for extrusion
G92 E0
; Filament gcode
;LAYER_CHANGE
;Z:0.35
;HEIGHT:0.35
G1 Z0.350 F7800.000
G1 E-2.00000 F2400.000
G92 E0
G1 X44.899 Y60.773 F7800.000
G1 E2.00000 F2400.000
;TYPE:Skirt
;WIDTH:0.7
G1 F1800.000
G1 X45.969 Y59.743 E2.13502
G1 X46.860 Y59.167 E2.23147
G1 X47.831 Y58.740 E2.32793
G1 X48.858 Y58.474 E2.42439
G1 X49.914 Y58.376 E2.52085
G1 X150.006 Y58.375 E11.62220
G1 X151.258 Y58.496 E11.73651
G1 X152.464 Y58.850 E11.85082
G1 X153.581 Y59.426 E11.96513
G1 X154.570 Y60.203 E12.07945
G1 X155.393 Y61.153 E12.19376
G1 X156.023 Y62.241 E12.30807
G1 X156.436 Y63.429 E12.42239
G1 X156.617 Y64.673 E12.53670
G1 X156.621 Y135.229 E18.95235
G1 X156.410 Y136.673 E19.08507
G1 X155.888 Y138.036 E19.21779
G1 X155.080 Y139.252 E19.35051
G1 X154.031 Y140.257 E19.48265
G1 X153.140 Y140.833 E19.57911
G1 X152.169 Y141.260 E19.67557
G1 X151.142 Y141.526 E19.77202
G1 X150.086 Y141.624 E19.86848
G1 X49.924 Y141.624 E28.97619
G1 X48.438 Y141.438 E29.11236
G1 X47.032 Y140.923 E29.24852
G1 X45.782 Y140.109 E29.38411
G1 X44.743 Y139.031 E29.52028
G1 X44.170 Y138.146 E29.61616
G1 X43.747 Y137.187 E29.71146
G1 X43.480 Y136.173 E29.80677
G1 X43.376 Y135.124 E29.90265
G1 X43.376 Y64.898 E36.28825
G1 X43.566 Y63.419 E36.42384
G1 X44.083 Y62.020 E36.55944
G1 X44.866 Y60.823 E36.68957
G1 E34.68957 F2400.000
G92 E0
G1 X94.456 Y118.764 F7800.000
G1 E2.00000 F2400.000
;TYPE:Perimeter
G1 F1800.000
G1 X95.428 Y118.084 E2.10789
G1 X96.503 Y117.582 E2.21577
G1 X97.649 Y117.275 E2.32366
G1 X98.793 Y117.175 E2.42812
G1 X100.008 Y117.274 E2.53894
G1 X101.159 Y117.582 E2.64727
G1 X102.234 Y118.084 E2.75516
G1 X103.206 Y118.764 E2.86304
G1 X104.045 Y119.603 E2.97093
G1 X104.726 Y120.575 E3.07882
G1 X105.227 Y121.651 E3.18670
G1 X105.534 Y122.797 E3.29459
G1 X105.637 Y123.979 E3.40247
G1 X105.534 Y125.161 E3.51036
G1 X105.227 Y126.307 E3.61825
G1 X104.741 Y127.348 E3.72271
G1 X104.048 Y128.350 E3.83353
G1 X103.206 Y129.193 E3.94186
G1 X102.234 Y129.873 E4.04975
G1 X101.159 Y130.375 E4.15763
G1 X100.013 Y130.682 E4.26552
G1 X98.831 Y130.785 E4.37340
G1 X97.649 Y130.682 E4.48129
G1 X96.503 Y130.375 E4.58918
G1 X95.428 Y129.873 E4.69706
G1 X94.456 Y129.193 E4.80495
G1 X93.617 Y128.354 E4.91283
G1 X92.936 Y127.382 E5.02072
G1 X92.435 Y126.307 E5.12861
G1 X92.128 Y125.161 E5.23649
G1 X92.024 Y123.979 E5.34438
G1 X92.128 Y122.797 E5.45226
G1 X92.435 Y121.651 E5.56015
G1 X92.936 Y120.575 E5.66803
G1 X93.617 Y119.603 E5.77592
G1 X94.413 Y118.807 E5.87835
G1 X94.855 Y119.249 F7800.000
G1 F1800.000
G1 X95.741 Y118.627 E5.97677
G1 X96.717 Y118.172 E6.07472
G1 X97.758 Y117.893 E6.17266
G1 X98.795 Y117.802 E6.26735
G1 X99.901 Y117.892 E6.36823
G1 X100.944 Y118.172 E6.46645
G1 X101.921 Y118.627 E6.56439
G1 X102.803 Y119.245 E6.66233
G1 X103.565 Y120.007 E6.76028
G1 X104.182 Y120.889 E6.85822
G1 X104.638 Y121.865 E6.95616
G1 X104.916 Y122.906 E7.05411
G1 X105.010 Y123.979 E7.15205
G1 X104.916 Y125.052 E7.24999
G1 X104.638 Y126.092 E7.34794
G1 X104.197 Y127.036 E7.44263
G1 X103.567 Y127.949 E7.54351
G1 X102.803 Y128.712 E7.64172
G1 X101.921 Y129.330 E7.73967
G1 X100.944 Y129.785 E7.83761
G1 X99.904 Y130.064 E7.93556
G1 X98.831 Y130.158 E8.03350
G1 X97.758 Y130.064 E8.13144
G1 X96.717 Y129.785 E8.22939
G1 X95.741 Y129.330 E8.32733
G1 X94.859 Y128.712 E8.42527
G1 X94.097 Y127.951 E8.52322
G1 X93.479 Y127.068 E8.62116
G1 X93.024 Y126.092 E8.71910
G1 X92.745 Y125.052 E8.81705
G1 X92.651 Y123.979 E8.91499
G1 X92.745 Y122.906 E9.01293
G1 X93.024 Y121.865 E9.11088
G1 X93.479 Y120.889 E9.20882
G1 X94.097 Y120.007 E9.30677
G1 X94.813 Y119.291 E9.39877
G1 X95.254 Y119.733 F7800.000
;TYPE:External perimeter
G1 F1800.000
G1 X96.055 Y119.170 E9.48772
G1 X96.932 Y118.761 E9.57573
G1 X97.867 Y118.511 E9.66373
G1 X98.797 Y118.429 E9.74865
G1 X99.794 Y118.511 E9.83959
G1 X100.730 Y118.761 E9.92769
G1 X101.607 Y119.170 E10.01569
G1 X102.400 Y119.725 E10.10369
G1 X103.084 Y120.410 E10.19169
G1 X103.639 Y121.203 E10.27969
G1 X104.048 Y122.080 E10.36769
G1 X104.299 Y123.015 E10.45569
G1 X104.383 Y123.979 E10.54369
G1 X104.299 Y124.943 E10.63170
G1 X104.048 Y125.878 E10.71970
G1 X103.653 Y126.724 E10.80462
G1 X103.085 Y127.547 E10.89556
G1 X102.400 Y128.232 E10.98366
G1 X101.607 Y128.787 E11.07166
G1 X100.730 Y129.196 E11.15966
G1 X99.795 Y129.446 E11.24766
G1 X98.831 Y129.531 E11.33566
G1 X97.867 Y129.446 E11.42366
G1 X96.932 Y129.196 E11.51166
G1 X96.055 Y128.787 E11.59967
G1 X95.262 Y128.232 E11.68767
G1 X94.578 Y127.547 E11.77567
G1 X94.023 Y126.755 E11.86367
G1 X93.614 Y125.878 E11.95167
G1 X93.363 Y124.943 E12.03967
G1 X93.279 Y123.979 E12.12767
G1 X93.363 Y123.015 E12.21567
G1 X93.614 Y122.080 E12.30367
G1 X94.023 Y121.203 E12.39168
G1 X94.578 Y120.410 E12.47968
G1 X95.212 Y119.775 E12.56125
G1 X95.184 Y119.339 F7800.000
G1 E10.56125 F2400.000
G92 E0
G1 X104.481 Y114.332 F7800.000
G1 E2.00000 F2400.000
;TYPE:Perimeter
G1 F1800.000
G1 X103.459 Y112.728 E2.17294
G1 X102.581 Y111.041 E2.34588
G1 X101.869 Y109.322 E2.51512
G1 X101.282 Y107.472 E2.69162
G1 X100.870 Y105.613 E2.86470
G1 X100.621 Y103.728 E3.03764
G1 X100.538 Y101.828 E3.21058
G1 X100.621 Y99.927 E3.38352
G1 X100.870 Y98.042 E3.55647
G1 X101.281 Y96.185 E3.72941
G1 X101.853 Y94.371 E3.90235
G1 X102.581 Y92.614 E4.07529
G1 X103.459 Y90.927 E4.24824
G1 X104.481 Y89.323 E4.42118
G1 X105.639 Y87.814 E4.59412
G1 X106.924 Y86.412 E4.76706
G1 X108.326 Y85.127 E4.94000
G1 X109.835 Y83.969 E5.11295
G1 X111.439 Y82.947 E5.28589
G1 X113.126 Y82.069 E5.45883
G1 X114.883 Y81.341 E5.63177
G1 X116.697 Y80.769 E5.80472
G1 X118.554 Y80.357 E5.97766
G1 X120.440 Y80.109 E6.15060
G1 X122.299 Y80.028 E6.31983
G1 X124.238 Y80.109 E6.49633
G1 X126.126 Y80.357 E6.66941
G1 X127.983 Y80.769 E6.84235
G1 X129.796 Y81.341 E7.01530
G1 X131.554 Y82.069 E7.18824
G1 X133.241 Y82.947 E7.36118
G1 X134.810 Y83.947 E7.53041
G1 X136.352 Y85.126 E7.70691
G1 X137.756 Y86.412 E7.88000
G1 X139.041 Y87.814 E8.05294
G1 X140.199 Y89.323 E8.22588
G1 X141.221 Y90.927 E8.39882
G1 X142.099 Y92.614 E8.57176
G1 X142.827 Y94.371 E8.74471
G1 X143.398 Y96.185 E8.91765
G1 X143.810 Y98.042 E9.09059
G1 X144.058 Y99.927 E9.26353
G1 X144.141 Y101.828 E9.43647
G1 X144.058 Y103.728 E9.60942
G1 X143.810 Y105.613 E9.78236
G1 X143.398 Y107.470 E9.95530
G1 X142.827 Y109.284 E10.12824
G1 X142.099 Y111.041 E10.30119
G1 X141.221 Y112.728 E10.47413
G1 X140.199 Y114.332 E10.64707
G1 X139.041 Y115.841 E10.82001
G1 X137.756 Y117.244 E10.99295
G1 X136.354 Y118.529 E11.16590
G1 X134.845 Y119.686 E11.33884
G1 X133.241 Y120.708 E11.51178
G1 X131.554 Y121.586 E11.68472
G1 X129.796 Y122.314 E11.85767
G1 X127.983 Y122.886 E12.03061
G1 X126.126 Y123.298 E12.20355
G1 X124.240 Y123.546 E12.37649
G1 X122.340 Y123.629 E12.54943
G1 X120.440 Y123.546 E12.72238
G1 X118.554 Y123.298 E12.89532
G1 X116.697 Y122.886 E13.06826
G1 X114.883 Y122.314 E13.24120
G1 X113.126 Y121.586 E13.41415
G1 X111.439 Y120.708 E13.58709
G1 X109.835 Y119.686 E13.76003
G1 X108.326 Y118.529 E13.93297
G1 X106.924 Y117.244 E14.10591
G1 X105.639 Y115.841 E14.27886
G1 X104.518 Y114.380 E14.44634
G1 X105.013 Y114.000 F7800.000
G1 F1800.000
G1 X104.001 Y112.416 E14.61729
G1 X103.148 Y110.777 E14.78527
G1 X102.456 Y109.107 E14.94959
G1 X101.886 Y107.309 E15.12113
G1 X101.486 Y105.505 E15.28920
G1 X101.244 Y103.673 E15.45718
G1 X101.164 Y101.828 E15.62516
G1 X101.244 Y99.982 E15.79314
G1 X101.486 Y98.150 E15.96112
G1 X101.885 Y96.347 E16.12910
G1 X102.441 Y94.585 E16.29708
G1 X103.148 Y92.878 E16.46506
G1 X104.001 Y91.240 E16.63304
G1 X104.993 Y89.682 E16.80102
G1 X106.118 Y88.216 E16.96900
G1 X107.366 Y86.854 E17.13698
G1 X108.728 Y85.606 E17.30496
G1 X110.194 Y84.481 E17.47294
G1 X111.752 Y83.489 E17.64092
G1 X113.391 Y82.636 E17.80890
G1 X115.097 Y81.929 E17.97688
G1 X116.859 Y81.373 E18.14486
G1 X118.663 Y80.973 E18.31284
G1 X120.494 Y80.732 E18.48082
G1 X122.300 Y80.653 E18.64515
G1 X124.185 Y80.732 E18.81669
G1 X126.017 Y80.973 E18.98475
G1 X127.821 Y81.373 E19.15273
G1 X129.582 Y81.929 E19.32071
G1 X131.289 Y82.636 E19.48869
G1 X132.928 Y83.489 E19.65667
G1 X134.452 Y84.460 E19.82100
G1 X135.951 Y85.605 E19.99254
G1 X137.314 Y86.854 E20.16060
G1 X138.562 Y88.216 E20.32858
G1 X139.686 Y89.682 E20.49656
G1 X140.679 Y91.240 E20.66454
G1 X141.532 Y92.878 E20.83252
G1 X142.239 Y94.585 E21.00051
G1 X142.794 Y96.347 E21.16849
G1 X143.194 Y98.150 E21.33647
G1 X143.435 Y99.982 E21.50445
G1 X143.516 Y101.828 E21.67243
G1 X143.435 Y103.673 E21.84041
G1 X143.194 Y105.505 E22.00839
G1 X142.794 Y107.308 E22.17637
G1 X142.239 Y109.070 E22.34435
G1 X141.532 Y110.777 E22.51233
G1 X140.679 Y112.416 E22.68031
G1 X139.686 Y113.974 E22.84829
G1 X138.562 Y115.439 E23.01627
G1 X137.314 Y116.801 E23.18425
G1 X135.952 Y118.049 E23.35223
G1 X134.486 Y119.174 E23.52021
G1 X132.928 Y120.167 E23.68819
G1 X131.289 Y121.020 E23.85617
G1 X129.582 Y121.727 E24.02415
G1 X127.821 Y122.282 E24.19213
G1 X126.017 Y122.682 E24.36012
G1 X124.185 Y122.923 E24.52810
G1 X122.340 Y123.004 E24.69608
G1 X120.494 Y122.923 E24.86406
G1 X118.663 Y122.682 E25.03204
G1 X116.859 Y122.282 E25.20002
G1 X115.097 Y121.727 E25.36800
G1 X113.391 Y121.020 E25.53598
G1 X111.752 Y120.167 E25.70396
G1 X110.194 Y119.174 E25.87194
G1 X108.728 Y118.049 E26.03992
G1 X107.366 Y116.801 E26.20790
G1 X106.118 Y115.439 E26.37588
G1 X105.050 Y114.047 E26.53543
G1 X105.546 Y113.667 F7800.000
;TYPE:External perimeter
G1 F1800.000
G1 X104.543 Y112.103 E26.70438
G1 X103.715 Y110.513 E26.86740
G1 X103.044 Y108.893 E27.02681
G1 X102.490 Y107.147 E27.19339
G1 X102.102 Y105.396 E27.35644
G1 X101.868 Y103.619 E27.51946
G1 X101.789 Y101.828 E27.68248
G1 X101.868 Y100.037 E27.84550
G1 X102.102 Y98.259 E28.00851
G1 X102.490 Y96.509 E28.17153
G1 X103.029 Y94.799 E28.33455
G1 X103.715 Y93.143 E28.49757
G1 X104.543 Y91.552 E28.66059
G1 X105.506 Y90.040 E28.82361
G1 X106.597 Y88.618 E28.98663
G1 X107.808 Y87.296 E29.14965
G1 X109.130 Y86.085 E29.31266
G1 X110.553 Y84.994 E29.47568
G1 X112.065 Y84.030 E29.63870
G1 X113.655 Y83.203 E29.80172
G1 X115.311 Y82.516 E29.96474
G1 X117.021 Y81.977 E30.12776
G1 X118.771 Y81.589 E30.29078
G1 X120.549 Y81.355 E30.45380
G1 X122.300 Y81.279 E30.61321
G1 X124.131 Y81.355 E30.77979
G1 X125.908 Y81.589 E30.94284
G1 X127.659 Y81.977 E31.10586
G1 X129.369 Y82.516 E31.26888
G1 X131.025 Y83.203 E31.43190
G1 X132.615 Y84.030 E31.59491
G1 X134.094 Y84.972 E31.75433
G1 X135.549 Y86.085 E31.92091
G1 X136.871 Y87.296 E32.08396
G1 X138.082 Y88.618 E32.24698
G1 X139.174 Y90.040 E32.40999
G1 X140.137 Y91.552 E32.57301
G1 X140.965 Y93.143 E32.73603
G1 X141.651 Y94.799 E32.89905
G1 X142.190 Y96.509 E33.06207
G1 X142.578 Y98.259 E33.22509
G1 X142.812 Y100.037 E33.38811
G1 X142.890 Y101.828 E33.55113
G1 X142.812 Y103.619 E33.71415
G1 X142.578 Y105.396 E33.87716
G1 X142.190 Y107.146 E34.04018
G1 X141.651 Y108.856 E34.20320
G1 X140.965 Y110.513 E34.36622
G1 X140.137 Y112.103 E34.52924
G1 X139.174 Y113.615 E34.69226
G1 X138.082 Y115.037 E34.85528
G1 X136.871 Y116.359 E35.01830
G1 X135.549 Y117.570 E35.18131
G1 X134.127 Y118.662 E35.34433
G1 X132.615 Y119.625 E35.50735
G1 X131.025 Y120.453 E35.67037
G1 X129.369 Y121.139 E35.83339
G1 X127.659 Y121.678 E35.99641
G1 X125.908 Y122.066 E36.15943
G1 X124.131 Y122.300 E36.32245
G1 X122.340 Y122.378 E36.48546
G1 X120.549 Y122.300 E36.64848
G1 X118.771 Y122.066 E36.81150
G1 X117.021 Y121.678 E36.97452
G1 X115.311 Y121.139 E37.13754
G1 X113.655 Y120.453 E37.30056
G1 X112.065 Y119.625 E37.46358
G1 X110.553 Y118.662 E37.62660
G1 X109.130 Y117.570 E37.78961
G1 X107.808 Y116.359 E37.95263
G1 X106.597 Y115.037 E38.11565
G1 X105.582 Y113.714 E38.26727
G1 X105.147 Y113.703 F7800.000
G1 E36.26727 F2400.000
G92 E0
G1 X101.619 Y85.676 F7800.000
G1 E2.00000 F2400.000
;TYPE:Perimeter
G1 F1800.000
G1 X100.437 Y85.779 E2.10789
G1 X99.255 Y85.676 E2.21577
G1 X98.109 Y85.369 E2.32366
G1 X97.033 Y84.868 E2.43154
G1 X96.062 Y84.187 E2.53943
G1 X95.223 Y83.348 E2.64732
G1 X94.542 Y82.376 E2.75520
G1 X94.041 Y81.301 E2.86309
G1 X93.734 Y80.155 E2.97097
G1 X93.630 Y78.973 E3.07886
G1 X93.734 Y77.791 E3.18674
G1 X94.041 Y76.645 E3.29463
G1 X94.542 Y75.569 E3.40252
G1 X95.223 Y74.598 E3.51040
G1 X96.062 Y73.759 E3.61829
G1 X97.033 Y73.078 E3.72617
G1 X98.109 Y72.577 E3.83406
G1 X99.255 Y72.270 E3.94195
G1 X100.399 Y72.169 E4.04641
G1 X101.614 Y72.268 E4.15723
G1 X102.765 Y72.577 E4.26556
G1 X103.840 Y73.078 E4.37345
G1 X104.812 Y73.759 E4.48133
G1 X105.651 Y74.598 E4.58922
G1 X106.332 Y75.569 E4.69710
G1 X106.833 Y76.645 E4.80499
G1 X107.140 Y77.791 E4.91288
G1 X107.243 Y78.973 E5.02076
G1 X107.140 Y80.155 E5.12865
G1 X106.833 Y81.301 E5.23653
G1 X106.332 Y82.376 E5.34442
G1 X105.651 Y83.348 E5.45231
G1 X104.812 Y84.187 E5.56019
G1 X103.840 Y84.868 E5.66808
G1 X102.765 Y85.369 E5.77596
G1 X101.677 Y85.660 E5.87839
G1 X101.515 Y85.057 F7800.000
G1 F1800.000
G1 X100.437 Y85.152 E5.97681
G1 X99.364 Y85.058 E6.07476
G1 X98.323 Y84.779 E6.17270
G1 X97.347 Y84.324 E6.27064
G1 X96.465 Y83.706 E6.36859
G1 X95.703 Y82.945 E6.46653
G1 X95.085 Y82.062 E6.56448
G1 X94.630 Y81.086 E6.66242
G1 X94.351 Y80.046 E6.76036
G1 X94.257 Y78.973 E6.85831
G1 X94.351 Y77.900 E6.95625
G1 X94.630 Y76.859 E7.05419
G1 X95.085 Y75.883 E7.15214
G1 X95.703 Y75.001 E7.25008
G1 X96.465 Y74.239 E7.34802
G1 X97.347 Y73.621 E7.44597
G1 X98.323 Y73.166 E7.54391
G1 X99.364 Y72.887 E7.64185
G1 X100.401 Y72.797 E7.73655
G1 X101.507 Y72.887 E7.83743
G1 X102.550 Y73.166 E7.93564
G1 X103.526 Y73.621 E8.03359
G1 X104.409 Y74.239 E8.13153
G1 X105.170 Y75.001 E8.22947
G1 X105.788 Y75.883 E8.32742
G1 X106.243 Y76.859 E8.42536
G1 X106.522 Y77.900 E8.52330
G1 X106.616 Y78.973 E8.62125
G1 X106.522 Y80.046 E8.71919
G1 X106.243 Y81.086 E8.81713
G1 X105.788 Y82.062 E8.91508
G1 X105.170 Y82.945 E9.01302
G1 X104.409 Y83.706 E9.11096
G1 X103.526 Y84.324 E9.20891
G1 X102.550 Y84.779 E9.30685
G1 X101.573 Y85.041 E9.39886
G1 X101.411 Y84.438 F7800.000
;TYPE:External perimeter
G1 F1800.000
G1 X100.437 Y84.525 E9.48781
G1 X99.473 Y84.441 E9.57581
G1 X98.538 Y84.190 E9.66381
G1 X97.661 Y83.781 E9.75181
G1 X96.868 Y83.226 E9.83982
G1 X96.184 Y82.542 E9.92782
G1 X95.629 Y81.749 E10.01582
G1 X95.220 Y80.872 E10.10382
G1 X94.969 Y79.937 E10.19182
G1 X94.885 Y78.973 E10.27982
G1 X94.969 Y78.009 E10.36782
G1 X95.220 Y77.074 E10.45582
G1 X95.629 Y76.197 E10.54382
G1 X96.184 Y75.404 E10.63183
G1 X96.868 Y74.720 E10.71983
G1 X97.661 Y74.165 E10.80783
G1 X98.538 Y73.756 E10.89583
G1 X99.473 Y73.505 E10.98383
G1 X100.403 Y73.424 E11.06876
G1 X101.400 Y73.505 E11.15969
G1 X102.336 Y73.756 E11.24779
G1 X103.213 Y74.165 E11.33579
G1 X104.006 Y74.720 E11.42379
G1 X104.690 Y75.404 E11.51179
G1 X105.245 Y76.197 E11.59980
G1 X105.654 Y77.074 E11.68780
G1 X105.905 Y78.009 E11.77580
G1 X105.989 Y78.973 E11.86380
G1 X105.905 Y79.937 E11.95180
G1 X105.654 Y80.872 E12.03980
G1 X105.245 Y81.749 E12.12780
G1 X104.690 Y82.542 E12.21580
G1 X104.006 Y83.226 E12.30380
G1 X103.213 Y83.781 E12.39181
G1 X102.336 Y84.190 E12.47981
G1 X101.469 Y84.422 E12.56138
G1 X101.275 Y84.814 F7800.000
G1 E10.56138 F2400.000
G92 E0
G1 X93.907 Y88.584 F7800.000
G1 E2.00000 F2400.000
;TYPE:Perimeter
G1 F1800.000
G1 X94.929 Y90.188 E2.17294
G1 X95.807 Y91.875 E2.34588
G1 X96.535 Y93.632 E2.51883
G1 X97.107 Y95.446 E2.69177
G1 X97.518 Y97.303 E2.86471
G1 X97.767 Y99.188 E3.03765
G1 X97.849 Y101.088 E3.21060
G1 X97.767 Y102.989 E3.38354
G1 X97.518 Y104.874 E3.55648
G1 X97.107 Y106.731 E3.72942
G1 X96.535 Y108.545 E3.90236
G1 X96.171 Y109.424 E3.98884
G1 X95.807 Y110.302 E4.07531
G1 X94.929 Y111.989 E4.24825
